X: 14983
T: General Stewart Of Garth
R: strathspey
M: 4/4
K: Amajor
a|e<A c>d e>A c>A|d<f e>c B/B/B B>a|e<A c>d e>A c>A|1 d<f e>c A/A/A Aa:|2 d<f e>c A/A/A Ad||
c>e e<=g f<a e>c|d>f e>c B/B/B B>d|c>e e<=g f<a e>c|d<f e>c A/A/A Ad|
c>e e<=g f<a e>c|d>f e>c B/B/B B>d|c>e a<e f>b e<c|d<f e>c A/A/A A||

